src/Pure/16/symbolic/actions/media-playlist-no-repeat-symbolic.svg

<?xml version="1.0" encoding="UTF-8" standalone="no"?>
<svg
   version="1.1"
   viewBox="0 0 16 16"
   id="svg1"
   sodipodi:docname="media-playlist-no-repeat-symbolic.svg"
   inkscape:version="1.4.2 (ebf0e940d0, 2025-05-08)"
   xmlns:inkscape="http://www.inkscape.org/namespaces/inkscape"
   xmlns:sodipodi="http://sodipodi.sourceforge.net/DTD/sodipodi-0.dtd"
   xmlns="http://www.w3.org/2000/svg"
   xmlns:svg="http://www.w3.org/2000/svg">
  <sodipodi:namedview
     id="namedview1"
     pagecolor="#ffffff"
     bordercolor="#000000"
     borderopacity="0.25"
     inkscape:showpageshadow="2"
     inkscape:pageopacity="0.0"
     inkscape:pagecheckerboard="0"
     inkscape:deskcolor="#d1d1d1"
     inkscape:zoom="49.6875"
     inkscape:cx="8"
     inkscape:cy="8"
     inkscape:window-width="1920"
     inkscape:window-height="1010"
     inkscape:window-x="0"
     inkscape:window-y="0"
     inkscape:window-maximized="1"
     inkscape:current-layer="svg1" />
  <defs
     id="defs1">
    <style
       id="current-color-scheme"
       type="text/css">.ColorScheme-Text {
        color:#363636;
      }</style>
  </defs>
  <path
     id="path1"
     class="ColorScheme-Text"
     style="fill:currentColor"
     d="M 1.2832031 0.57617188 L 0.57617188 1.2832031 L 2.2792969 2.9863281 C 2.1025983 3.2826026 2 3.6279924 2 4 L 2 7.0390625 C 2.064835 7.0282255 2.1233963 7 2.1914062 7 L 3 7 L 3 4 C 3 3.9099495 3.01266 3.8240335 3.0351562 3.7421875 L 12.257812 12.964844 C 12.176033 12.987301 12.089967 13 12 13 L 3 13 L 5.5351562 10.464844 L 4.828125 9.7578125 L 1.2929688 13.292969 L 2 14 L 12 14 C 12.371942 14 12.717421 13.897366 13.013672 13.720703 L 14.716797 15.423828 L 15.423828 14.716797 L 13.71875 13.011719 L 12.951172 12.244141 L 3.7558594 3.0488281 L 2.9882812 2.28125 L 1.2832031 0.57617188 z M 4.1210938 2 L 5.1210938 3 L 13 3 L 10.464844 5.5351562 L 11.171875 6.2421875 L 14.707031 2.7070312 L 14 2 L 4.1210938 2 z M 14 8.9609375 C 13.935165 8.9717745 13.876604 9 13.808594 9 L 13 9 L 13 10.878906 L 14 11.878906 L 14 8.9609375 z " />
</svg>

<svg version="1.1" viewBox="0 0 16 16" xmlns="http://www.w3.org/2000/svg">
 <defs>
  <style id="current-color-scheme" type="text/css">.ColorScheme-Text {
        color:#363636;
      }</style>
 </defs>
 <path d="m4.1211 2 1 1h7.8789l-2.5352 2.5352 0.70703 0.70703 3.5352-3.5352-0.70703-0.70703h-9.8789zm-1.1328 0.28125c-0.58954 0.34713-0.98828 0.98238-0.98828 1.7188v3.0391c0.064835-0.010837 0.1234-0.039062 0.19141-0.039062h0.80859v-3c0-0.46744 0.32386-0.84054 0.75586-0.95117l-0.76758-0.76758zm11.012 6.6797c-0.064835 0.010837-0.1234 0.039062-0.19141 0.039062h-0.80859v1.8789l1 1v-2.918zm-9.1719 0.79688-3.5352 3.5352 0.70703 0.70703h10c0.73637 0 1.3716-0.39874 1.7188-0.98828l-0.76758-0.76758c-0.11064 0.432-0.48374 0.75586-0.95117 0.75586h-9l2.5352-2.5352-0.70703-0.70703z" fill="#363636"/>
 <rect transform="rotate(45)" x="1.3137" y="-.5" width="20" height="1" ry="0" fill="#363636"/>
</svg>
